components/Speakers/pattern3.svg

<svg fill="none" height="55" viewBox="0 0 44 55" width="44" xmlns="http://www.w3.org/2000/svg"><g fill="#e2def0"><path clip-rule="evenodd" d="m.00000043.20076c.00208816.188396.45666257 4.4049.78337757 7.26762.080796.70669.229372 2.18832.330412 3.29252.10103 1.1042.25138 2.622.3341 3.3728.18135 1.6471 1.00954 9.7712 1.44902 14.214.1746 1.7667.38759 3.7543.4732 4.4168.08562.6625.33748 3.2283.55979 5.7017s.47674 4.9307.56541 5.4607c.08882.5301.34422 2.9874.56781 5.4608.22344 2.4734.43804 4.5878.47675 4.6986.05606.1602 3.38923.1931 16.25333.1607l16.1829-.041.1923-1.5258c.1057-.8392.31-2.899.4537-4.5774.144-1.6784.3653-3.8827.4919-4.8986.1267-1.0159.3766-3.3648.5553-5.2198.2978-3.0911 1.0418-10.3355 1.4433-14.0535.0906-.8391.2738-2.7544.4071-4.2561.1331-1.5017.3509-3.5977.4839-4.6577.133-1.0601.4241-3.7704.6467-6.02292.2227-2.25256.5063-4.999.6305-6.1032.124-1.10419.2303-2.206296.2363-2.449299l.0107-.441681h-21.7649c-17.30598 0-21.76450584.0411132-21.76289957.20076zm41.98689957 1.22048c.0463.07501-.0168 1.06886-.1407 2.20839-.1236 1.13969-.3476 3.44526-.4977 5.12364-.1501 1.67833-.3226 3.10733-.3833 3.17543-.0107.0119-.3531.0231-.9652.0336-.3938.0067-.8993.013-1.5.019-1.7962.018-4.4433.0328-7.5.044-1.119.0041-2.2929.0077-3.5.0108-.658.0016-1.3258.0032-2 .0046-.497.001-.9975.0019-1.5.0027-2.5069.0042-5.0651.0062-7.5.0059-.7838-.0001-1.5548-.0005-2.3072-.0011-1.111-.0009-2.1815-.0023-3.1928-.0043-.8826-.0018-1.72008-.004-2.5-.0066-2.23955-.0076-4.00446-.0189-5-.0342-.56889-.0087-.88655-.0188-.898-.0302-.0182-.0183-.07899-.4763-.16389-1.212-.0979-.84836-.22785-2.06605-.36152-3.40494-.24978-2.4999-.49602-4.82072-.5471-5.15736s-.05092-.67986.00032-.7629c.11838-.19129 40.33889-.20558 40.45709-.01446z" fill-rule="evenodd"/><path d="m38.5 11.9813c-1.7962.018-4.4433.0328-7.5.044 3.2-2.77977 6.3333-1.1876 7.5-.044z"/><path d="m40.9652 11.9287c-.1551-1.5607-1.7652-4.53131-6.9652-3.9287-6.5.75327-7.5 4.0387-8.5 4.0407.6742-.0014 1.342-.003 2-.0046 3.3333-1.8706 10.5-4.50404 12.5-.0738.6121-.0105.9545-.0217.9652-.0336z"/><path d="m25.5 12.0407c-1-.9339-3.6-2.64942-6-2.0407-2.4.6087-4.5381 1.6191-5.3072 2.0482.7524.0006 1.5234.001 2.3072.0011 2-.9875 6.3-2.37113 7.5-.0059z"/><path d="m14.1928 12.0482c-.3229-.0002-3.1928-5.0482-7.6928-5.0482-3.6 0-4.20793 2.50726-4.06189 3.7609.0849.7357.14569 1.1937.16389 1.212.466-1.1577 1.798-3.4729 3.398-3.4729s4 2.3626 5 3.5439c1.0113.002 2.0818.0034 3.1928.0043z"/><path d="m8.5 12.0373c-2.23955-.0076-4.00446-.0189-5-.0342 1.6-2.79747 4-1.1428 5 .0342z"/></g></svg>

<svg width="44" height="55" viewBox="0 0 44 55" fill="none" xmlns="http://www.w3.org/2000/svg">
<path fill-rule="evenodd" clip-rule="evenodd" d="M4.33812e-07 0.20076C0.00208859 0.389156 0.456663 4.60566 0.783378 7.46838C0.864174 8.17507 1.01275 9.6567 1.11379 10.7609C1.21482 11.8651 1.36517 13.3829 1.44789 14.1337C1.62924 15.7808 2.45743 23.9049 2.89691 28.3477C3.07151 30.1144 3.2845 32.102 3.37011 32.7645C3.45573 33.427 3.70759 35.9928 3.9299 38.4662C4.15221 40.9396 4.40664 43.3969 4.49531 43.9269C4.58413 44.457 4.83953 46.9143 5.06312 49.3877C5.28656 51.8611 5.50116 53.9755 5.53987 54.0863C5.59593 54.2465 8.9291 54.2794 21.7932 54.247L37.9761 54.206L38.1684 52.6802C38.2741 51.841 38.4784 49.7812 38.6221 48.1028C38.7661 46.4244 38.9874 44.2201 39.114 43.2042C39.2407 42.1883 39.4906 39.8394 39.6693 37.9844C39.9671 34.8933 40.7111 27.6489 41.1126 23.9309C41.2032 23.0918 41.3864 21.1765 41.5197 19.6748C41.6528 18.1731 41.8706 16.0771 42.0036 15.0171C42.1366 13.957 42.4277 11.2467 42.6503 8.99418C42.873 6.74162 43.1566 3.99518 43.2808 2.89098C43.4048 1.78679 43.5111 0.684684 43.5171 0.441681L43.5278 0H21.7629C4.45692 0 -0.00160584 0.0411132 4.33812e-07 0.20076ZM41.9869 1.42124C42.0332 1.49625 41.9701 2.4901 41.8462 3.62963C41.7226 4.76932 41.4986 7.07489 41.3485 8.75327C41.1984 10.4316 41.0259 11.8606 40.9652 11.9287C40.9545 11.9406 40.6121 11.9518 40 11.9623C39.6062 11.969 39.1007 11.9753 38.5 11.9813C36.7038 11.9993 34.0567 12.0141 31 12.0253C29.881 12.0294 28.7071 12.033 27.5 12.0361C26.842 12.0377 26.1742 12.0393 25.5 12.0407C25.003 12.0417 24.5025 12.0426 24 12.0434C21.4931 12.0476 18.9349 12.0496 16.5 12.0493C15.7162 12.0492 14.9452 12.0488 14.1928 12.0482C13.0818 12.0473 12.0113 12.0459 11 12.0439C10.1174 12.0421 9.27992 12.0399 8.5 12.0373C6.26045 12.0297 4.49554 12.0184 3.5 12.0031C2.93111 11.9944 2.61345 11.9843 2.602 11.9729C2.5838 11.9546 2.52301 11.4966 2.43811 10.7609C2.34021 9.91254 2.21026 8.69485 2.07659 7.35596C1.82681 4.85606 1.58057 2.53524 1.52949 2.1986C1.47841 1.86196 1.47857 1.51874 1.52981 1.4357C1.64819 1.24441 41.8687 1.23012 41.9869 1.42124Z" fill="#E2DEF0"/>
<path d="M38.5 11.9813C36.7038 11.9993 34.0567 12.0141 31 12.0253C34.2 9.24553 37.3333 10.8377 38.5 11.9813Z" fill="#E2DEF0"/>
<path d="M40.9652 11.9287C40.8101 10.368 39.2 7.39739 34 8C27.5 8.75327 26.5 12.0387 25.5 12.0407C26.1742 12.0393 26.842 12.0377 27.5 12.0361C30.8333 10.1655 38 7.53206 40 11.9623C40.6121 11.9518 40.9545 11.9406 40.9652 11.9287Z" fill="#E2DEF0"/>
<path d="M25.5 12.0407C24.5 11.1068 21.9 9.39128 19.5 10C17.1 10.6087 14.9619 11.6191 14.1928 12.0482C14.9452 12.0488 15.7162 12.0492 16.5 12.0493C18.5 11.0618 22.8 9.67817 24 12.0434L25.5 12.0407Z" fill="#E2DEF0"/>
<path d="M14.1928 12.0482C13.8699 12.048 11 7 6.5 7C2.9 7 2.29207 9.50726 2.43811 10.7609C2.52301 11.4966 2.5838 11.9546 2.602 11.9729C3.068 10.8152 4.4 8.5 6 8.5C7.6 8.5 10 10.8626 11 12.0439C12.0113 12.0459 13.0818 12.0473 14.1928 12.0482Z" fill="#E2DEF0"/>
<path d="M8.5 12.0373C6.26045 12.0297 4.49554 12.0184 3.5 12.0031C5.1 9.20563 7.5 10.8603 8.5 12.0373Z" fill="#E2DEF0"/>
</svg>
